client/public/static/logos/porsche.svg

<svg width="651" height="89" viewBox="0 0 651 89" fill="none" xmlns="http://www.w3.org/2000/svg">
<path d="M584.965 46.9999C584.965 37.1919 584.965 27.8837 584.965 18.1673C593.191 18.1673 601.301 17.6711 609.312 18.3447C614.507 18.7815 617.232 22.7706 618.454 28.0451C620.686 37.6811 618.213 45.5924 610.674 50.0178C612.214 53.0567 613.745 56.1324 615.327 59.1809C616.897 62.2067 618.52 65.2051 620.539 69.0032C617.181 69.0032 614.431 69.2222 611.746 68.8991C610.617 68.7633 609.23 67.7068 608.645 66.6791C606.613 63.1107 604.753 59.429 603.074 55.6797C601.583 52.3491 599.908 49.7224 595.174 51.6908C595.174 56.9496 595.174 62.6884 595.174 68.712C591.665 68.712 588.597 68.712 584.965 68.712C584.965 61.6926 584.965 54.5963 584.965 46.9999ZM608.971 36.2114C609.226 26.7457 607.847 25.7705 595.268 27.6289C595.268 32.7442 595.268 37.8227 595.268 42.8715C607.332 43.2764 607.332 43.2764 608.971 36.2114Z" fill="#333333"/>
<path d="M442.99 28.9768C447.464 28.9769 451.44 28.9769 455.711 28.9769C455.711 30.7193 455.711 32.2385 455.711 34.1776C438.158 34.1776 420.759 34.1776 403.186 34.1776C403.186 36.537 403.186 38.4832 403.186 40.807C420.568 40.807 437.976 40.807 455.695 40.807C455.695 42.8991 455.695 44.6252 455.695 46.7259C438.39 46.7259 420.986 46.7259 403.241 46.7259C403.133 48.834 403.044 50.5949 402.925 52.9254C420.606 52.9254 438.139 52.9254 455.835 52.9254C455.835 55.1064 455.835 56.7292 455.835 58.6911C436.213 58.6911 416.487 58.6911 396.387 58.6911C396.387 49.1189 396.387 39.3938 396.387 28.9768C411.683 28.9768 427.087 28.9768 442.99 28.9768Z" fill="#333333"/>
<path d="M239.99 53.0448C244.463 53.0452 248.439 53.0452 252.772 53.0452C252.862 51.0478 252.94 49.304 253.05 46.8577C250.568 46.8577 248.299 46.8575 246.03 46.8578C234.538 46.8589 223.046 46.9212 211.554 46.8409C203.345 46.7835 199.138 40.5535 202.553 33.0657C203.379 31.2552 206.117 29.2015 208.009 29.1674C224.805 28.8647 241.609 28.9914 258.701 28.9914C258.701 30.7192 258.701 32.2358 258.701 34.1206C242.274 34.1206 226.011 34.1206 209.382 34.1206C209.382 36.4937 209.382 38.5242 209.382 40.9925C223.11 40.9925 236.896 40.9876 250.682 40.9946C257.943 40.9983 260.038 43.0179 260.016 49.9498C259.995 56.5509 257.452 58.989 250.484 58.9958C234.848 59.0113 219.212 59.0007 203.282 59.0007C203.282 57.0661 203.282 55.3356 203.282 53.0445C215.286 53.0445 227.389 53.0445 239.99 53.0448Z" fill="#333333"/>
<path d="M193.886 57.469C191.923 58.4122 189.885 58.949 187.929 59.4641C184.888 51.2308 184.584 51.0117 176.538 51.0079C165.432 51.0027 154.326 51.0066 142.972 51.0066C142.972 53.7398 142.972 56.0203 142.972 58.6522C140.677 58.6522 138.618 58.6522 136.262 58.6522C136.262 49.0887 136.262 39.3448 136.262 28.9799C139.249 28.9799 142.344 28.9799 145.44 28.9799C158.921 28.9799 172.404 29.1446 185.88 28.8942C190.869 28.8015 193.295 30.9703 193.967 35.5487C195.081 43.1302 193.117 47.0496 188.469 48.2037C190.179 51.0395 191.995 54.0511 193.886 57.469ZM143.029 35.7032C143.029 38.4416 143.029 41.18 143.029 43.7853C158.013 43.7853 172.393 43.7853 186.75 43.7853C187.328 35.0571 187.328 35.0527 179.151 35.0621C167.363 35.0756 155.574 35.0964 143.029 35.7032Z" fill="#333333"/>
<path d="M100 28.9833C106.994 28.9847 113.488 28.945 119.981 29.0011C124.843 29.0431 126.921 31.0934 126.985 35.9199C127.054 41.0804 127.041 46.2429 126.992 51.4039C126.947 56.1484 124.525 58.9082 119.78 58.9532C105.796 59.0859 91.8086 59.0689 77.8236 58.9576C72.9956 58.9192 70.2086 56.0589 70.0384 51.1656C69.8706 46.3432 69.8895 41.5065 70.0416 36.6828C70.22 31.022 72.3629 29.0299 78.0224 28.9996C85.1816 28.9611 92.3411 28.9858 100 28.9833ZM120.001 44.4815C120.001 41.3995 120.001 38.3175 120.001 35.0598C106.303 35.0598 93.3426 34.9956 80.3856 35.1717C79.2489 35.1871 77.2267 36.7139 77.1611 37.6474C76.8291 42.3696 77.0083 47.1277 77.0083 51.6935C91.7086 51.6935 105.76 51.6935 120.001 51.6935C120.001 49.4095 120.001 47.4304 120.001 44.4815Z" fill="#333333"/>
<path d="M61.6196 44.2607C60.8445 49.6647 57.5557 51.0454 53.0315 51.0254C39.2164 50.9644 25.4008 51.0033 11.1397 51.0033C11.0253 53.5736 10.9185 55.9767 10.7977 58.6907C8.67314 58.6907 6.60475 58.6907 4.26172 58.6907C4.26172 49.0594 4.26172 39.3071 4.26172 28.9786C11.9849 28.9786 19.7526 28.977 27.5203 28.979C36.1863 28.9813 44.8524 28.9772 53.5184 28.9942C59.6219 29.0062 61.2166 30.3829 61.6837 36.3498C61.8781 38.8332 61.705 41.3454 61.6196 44.2607ZM16.6088 35.0481C14.8302 35.0481 13.0515 35.0481 11.1533 35.0481C11.1533 38.249 11.1533 40.973 11.1533 43.7362C25.8879 43.7362 40.385 43.7362 54.8656 43.7362C55.2551 33.2244 55.2707 35.1739 46.9555 35.0865C37.166 34.9836 27.3745 35.0627 16.6088 35.0481Z" fill="#333333"/>
<path d="M295 59.0015C288.671 59.0014 282.84 59.0465 277.011 58.9887C271.048 58.9295 268.387 56.5928 268.11 50.7878C267.88 45.9685 267.852 41.1165 268.133 36.3023C268.442 30.9965 270.775 29.0044 276.052 28.9962C291.852 28.9717 307.653 28.9874 323.728 28.9874C323.728 30.9757 323.728 32.7212 323.728 35.0663C317.435 35.0663 311.002 35.0658 304.569 35.0664C296.074 35.0672 287.578 35.1563 279.085 35.0225C276.134 34.976 274.799 35.8351 274.953 38.9904C275.155 43.1207 275.003 47.2683 275.003 51.8291C291.33 51.8291 307.398 51.8291 323.743 51.8291C323.743 54.3081 323.743 56.3796 323.743 59.0015C314.374 59.0015 304.937 59.0015 295 59.0015Z" fill="#333333"/>
<path d="M363.997 40.1486C369.775 40.1486 375.052 40.1486 380.58 40.1486C380.58 36.3032 380.58 33.009 380.58 29.3502C382.863 29.3502 384.894 29.3502 387.115 29.3502C387.115 39.1238 387.115 48.8596 387.115 58.8021C385.021 58.8021 383.098 58.8021 380.721 58.8021C380.721 54.9011 380.721 51.1632 380.721 47.2187C367.011 47.2187 353.753 47.2187 340.08 47.2187C340.08 51.0165 340.08 54.7682 340.08 58.7567C337.607 58.7567 335.537 58.7567 333.225 58.7567C333.225 48.9773 333.225 39.2275 333.225 29.2325C335.352 29.2325 337.421 29.2325 339.863 29.2325C339.863 32.6854 339.863 36.1154 339.863 40.1486C347.974 40.1486 355.736 40.1486 363.997 40.1486Z" fill="#333333"/>
<path d="M642.198 17.869C644.46 17.8582 646.273 17.8582 648.013 17.8582C648.013 31.6851 648.329 45.1475 647.87 58.5835C647.664 64.5919 641.742 68.7385 634.806 69.0063C631.651 69.1282 628.487 69.027 625.061 69.027C625.061 66.4061 625.061 63.9803 625.061 60.9829C626.593 60.9829 628.18 60.9853 629.767 60.9825C637.396 60.9691 638.668 59.8098 638.756 52.0347C638.87 41.8694 638.83 31.702 638.787 21.5358C638.778 19.3911 638.66 17.4037 642.198 17.869Z" fill="#333333"/>
<path d="M513.918 27.0024C513.918 21.5396 513.918 16.5761 513.918 11.2278C516.929 11.2278 519.654 11.2278 522.749 11.2278C522.749 32.8499 522.749 54.5338 522.749 76.607C520.076 76.607 517.362 76.607 513.918 76.607C513.918 60.268 513.918 43.8849 513.918 27.0024ZM515.459 17.1568C515.327 19.1349 515.084 21.113 515.081 23.0913C515.061 39.1304 515.008 55.1707 515.244 71.2065C515.263 72.4914 517.153 74.4482 518.544 74.8676C521.428 75.7376 522.059 73.7104 522.05 71.1261C521.984 53.0265 522.086 34.9258 521.88 16.8283C521.862 15.2291 520.33 12.6772 518.975 12.2551C515.641 11.2163 516.13 14.3504 515.459 17.1568Z" fill="#BA4B4B"/>
<path d="M515.601 16.7385C516.128 14.3504 515.64 11.2163 518.974 12.2551C520.329 12.6772 521.861 15.2291 521.879 16.8283C522.085 34.9257 521.983 53.0265 522.049 71.126C522.058 73.7104 521.426 75.7376 518.542 74.8676C517.152 74.4482 515.262 72.4913 515.243 71.2065C515.007 55.1707 515.06 39.1303 515.08 23.0912C515.083 21.1129 515.326 19.1349 515.601 16.7385Z" fill="#333333"/>
</svg>

<svg xmlns="http://www.w3.org/2000/svg" width="651" height="89" fill="none" viewBox="0 0 651 89"><path fill="#333" d="M584.965 47V18.167c8.226 0 16.336-.496 24.347.178 5.195.437 7.92 4.426 9.142 9.7 2.232 9.636-.241 17.547-7.78 21.973 1.54 3.039 3.071 6.114 4.653 9.163 1.57 3.026 3.193 6.024 5.212 9.822-3.358 0-6.108.22-8.793-.104-1.129-.136-2.516-1.192-3.101-2.22a128 128 0 0 1-5.571-11c-1.491-3.33-3.166-5.957-7.9-3.988v17.021h-10.209zm24.006-10.789c.255-9.465-1.124-10.44-13.703-8.582V42.87c12.064.405 12.064.405 13.703-6.66M442.99 28.977h12.721v5.2h-52.525v6.63h52.509v5.919h-52.454l-.316 6.2h52.91v5.765h-59.448V28.977zM239.99 53.045h12.782l.278-6.187h-7.02c-11.492 0-22.984.063-34.476-.017-8.209-.058-12.416-6.288-9.001-13.775.826-1.81 3.564-3.865 5.456-3.899 16.796-.302 33.6-.176 50.692-.176v5.13h-49.319v6.871c13.728 0 27.514-.004 41.3.003 7.261.003 9.356 2.023 9.334 8.955-.021 6.6-2.564 9.039-9.532 9.046-15.636.015-31.272.005-47.202.005v-5.956zM193.886 57.469c-1.963.943-4.001 1.48-5.957 1.995-3.041-8.233-3.345-8.452-11.391-8.456-11.106-.005-22.212-.001-33.566-.001v7.645h-6.71V28.98h9.178c13.481 0 26.964.165 40.44-.086 4.989-.092 7.415 2.076 8.087 6.655 1.114 7.581-.85 11.5-5.498 12.655 1.71 2.835 3.526 5.847 5.417 9.265m-50.857-21.766v8.082h43.721c.578-8.728.578-8.732-7.599-8.723-11.788.014-23.577.034-36.122.641M100 28.983c6.994.002 13.488-.038 19.981.018 4.862.042 6.94 2.092 7.004 6.919.069 5.16.056 10.323.007 15.484-.045 4.744-2.467 7.504-7.212 7.55-13.984.132-27.971.115-41.956.004-4.828-.039-7.615-2.9-7.786-7.792-.167-4.823-.148-9.66.004-14.483.178-5.661 2.32-7.653 7.98-7.683 7.16-.039 14.32-.014 21.978-.017m20.001 15.498V35.06c-13.698 0-26.658-.064-39.615.112-1.137.015-3.16 1.542-3.225 2.475-.332 4.723-.153 9.48-.153 14.047h42.993zM61.62 44.26c-.776 5.405-4.064 6.785-8.588 6.765-13.816-.06-27.631-.022-41.892-.022l-.342 7.688H4.262V28.979c7.723 0 15.49-.002 23.258 0 8.666.002 17.332-.002 25.998.015 6.104.012 7.699 1.389 8.166 7.356.194 2.483.021 4.995-.064 7.91m-45.011-9.212h-5.456v8.688h43.713c.39-10.512.405-8.562-7.91-8.65-9.79-.102-19.582-.023-30.347-.038M295 59.002c-6.329 0-12.16.044-17.989-.013-5.963-.06-8.624-2.396-8.901-8.201-.23-4.82-.258-9.671.023-14.486.309-5.305 2.642-7.298 7.919-7.306 15.8-.024 31.601-.009 47.676-.009v6.08h-19.159c-8.495 0-16.991.09-25.484-.044-2.951-.047-4.286.812-4.132 3.967.202 4.13.05 8.278.05 12.84h48.74v7.172zM363.997 40.149h16.583V29.35h6.535v29.452h-6.394V47.22H340.08v11.538h-6.855V29.233h6.638v10.916zM642.198 17.869c2.262-.01 4.075-.01 5.815-.01 0 13.826.316 27.289-.143 40.725-.206 6.008-6.128 10.154-13.064 10.422-3.155.122-6.319.021-9.745.021v-8.044c1.532 0 3.119.002 4.706 0 7.629-.014 8.901-1.173 8.989-8.948.114-10.166.074-20.333.031-30.5-.009-2.144-.127-4.131 3.411-3.666"/><path fill="#ba4b4b" d="M513.918 27.002V11.228h8.831v65.379h-8.831zm1.541-9.845c-.132 1.978-.375 3.956-.378 5.934-.02 16.04-.073 32.08.163 48.116.019 1.284 1.909 3.241 3.3 3.66 2.884.87 3.515-1.157 3.506-3.74-.066-18.1.036-36.201-.17-54.299-.018-1.599-1.55-4.15-2.905-4.573-3.334-1.039-2.845 2.095-3.516 4.902"/><path fill="#333" d="M515.601 16.739c.527-2.389.039-5.523 3.373-4.484 1.355.422 2.887 2.974 2.905 4.573.206 18.098.104 36.198.17 54.298.009 2.584-.623 4.612-3.507 3.742-1.39-.42-3.28-2.377-3.299-3.661-.236-16.036-.183-32.077-.163-48.116.003-1.978.246-3.956.521-6.353"/></svg>
